packages/symbols/svgs/outline/book-bookmark-outline.svg

<svg width="24" height="24" viewBox="0 0 24 24" fill="none" xmlns="http://www.w3.org/2000/svg">
<path fill-rule="evenodd" clip-rule="evenodd" d="M2 3C2 1.34272 3.34272 0 5 0L11 0L17 0L21 0C21.5523 0 22 0.447715 22 1V18V23C22 23.5523 21.5523 24 21 24H5.5C3.56672 24 2 22.4333 2 20.5V3ZM4 20.5C4 21.3287 4.67128 22 5.5 22H20V19H5.5C4.67128 19 4 19.6713 4 20.5ZM4 17.3367V3C4 2.44728 4.44728 2 5 2H10V10C10 10.3688 10.203 10.7077 10.5281 10.8817C10.8533 11.0557 11.2478 11.0366 11.5547 10.8321L14 9.20185L16.4453 10.8321C16.7522 11.0366 17.1467 11.0557 17.4719 10.8817C17.797 10.7077 18 10.3688 18 10V2H20V17H5.5C4.96317 17 4.45461 17.1208 4 17.3367ZM12 8.13148V2H16V8.13148L14.5547 7.16795C14.2188 6.94402 13.7812 6.94402 13.4453 7.16795L12 8.13148Z" fill="black"/>
</svg>

<svg width="24" height="24" viewBox="0 0 24 24" xmlns="http://www.w3.org/2000/svg"><path fill-rule="evenodd" clip-rule="evenodd" d="M2 3a3 3 0 0 1 3-3h16a1 1 0 0 1 1 1v22a1 1 0 0 1-1 1H5.5A3.5 3.5 0 0 1 2 20.5V3Zm2 17.5A1.5 1.5 0 0 0 5.5 22H20v-3H5.5A1.5 1.5 0 0 0 4 20.5Zm0-3.163V3a1 1 0 0 1 1-1h5v8a1 1 0 0 0 1.555.832L14 9.202l2.445 1.63A1 1 0 0 0 18 10V2h2v15H5.5c-.537 0-1.045.12-1.5.337Zm8-9.206V2h4v6.131l-1.445-.963a1 1 0 0 0-1.11 0L12 8.13Z"/></svg>
